public/img/icons/building-manager-icon.svg

<svg clip-rule="evenodd" fill-rule="evenodd" height="56" viewBox="0 0 56 56" width="56" xmlns="http://www.w3.org/2000/svg"><g stroke="#000" stroke-width="2"><path d="m55 3v34c0 1.104-.896 2-2 2h-50c-1.104 0-2-.896-2-2v-34c0-1.104.896-2 2-2h50c1.104 0 2 .896 2 2z" fill="#fff"/><path d="m36 51v4h-16v-16h16v8" fill="none" stroke-linecap="round"/><path d="m12 55h32" fill="none" stroke-linecap="round"/></g><path d="m20 39h16v6h-16z"/><g fill-rule="nonzero" transform="translate(-1333.84 -436.92)"><path d="m1355.03 460.996c0 2.051-1.17 3.076-3.51 3.076h-2.42c-.31 0-.57-.086-.78-.259s-.32-.38-.32-.62v-10.547c0-.24.11-.447.32-.619.21-.173.47-.26.78-.26h2.42c2.34 0 3.51 1.026 3.51 3.076v.879c0 .955-.25 1.688-.76 2.198.51.509.76 1.242.76 2.197zm-2.2-6.153c0-.878-.44-1.318-1.31-1.318h-1.32v3.516h1.32c.87 0 1.31-.44 1.31-1.319zm-1.31 7.471c.87 0 1.31-.439 1.31-1.318v-.879c0-.879-.44-1.318-1.31-1.318h-1.32v3.515z"/><path d="m1358.11 463.193c0 .24-.11.447-.32.62-.22.173-.48.259-.78.259-.31 0-.57-.086-.78-.259s-.32-.38-.32-.62v-8.35c0-2.05 1.17-3.076 3.52-3.076 1.03 0 1.83.2 2.41.598.58-.398 1.39-.598 2.42-.598 2.34 0 3.52 1.026 3.52 3.076v8.35c0 .24-.11.447-.33.62-.21.173-.47.259-.77.259-.31 0-.57-.086-.78-.259-.22-.173-.32-.38-.32-.62v-8.35c0-.878-.44-1.318-1.32-1.318s-1.32.44-1.32 1.318v8.35c0 .24-.11.447-.32.62s-.47.259-.78.259c-.3 0-.56-.086-.77-.259-.22-.173-.33-.38-.33-.62v-8.35c0-.878-.44-1.318-1.31-1.318-.88 0-1.32.44-1.32 1.318z"/><path d="m1368.65 460.996c0-.24.11-.447.33-.62.21-.173.47-.259.77-.259.31 0 .57.086.78.259s.32.38.32.62c0 .879.44 1.318 1.32 1.318s1.32-.439 1.32-1.318c0-.586-.81-1.465-2.42-2.637s-2.42-2.344-2.42-3.516c0-2.05 1.18-3.076 3.52-3.076s3.51 1.026 3.51 3.076c0 .241-.1.447-.31.62-.22.173-.48.259-.78.259-.31 0-.57-.086-.78-.259s-.32-.379-.32-.62c0-.878-.44-1.318-1.32-1.318s-1.32.44-1.32 1.318c0 .586.81 1.465 2.42 2.637s2.41 2.344 2.41 3.516c0 2.051-1.17 3.076-3.51 3.076s-3.52-1.025-3.52-3.076z"/></g></svg>

<?xml version="1.0" encoding="UTF-8" standalone="no"?>
<!DOCTYPE svg PUBLIC "-//W3C//DTD SVG 1.1//EN" "http://www.w3.org/Graphics/SVG/1.1/DTD/svg11.dtd">
<svg width="56" height="56" viewBox="0 0 56 56" version="1.1" xmlns="http://www.w3.org/2000/svg" xmlns:xlink="http://www.w3.org/1999/xlink" xml:space="preserve" xmlns:serif="http://www.serif.com/" style="fill-rule:evenodd;clip-rule:evenodd;">
    <path d="M55,3L55,37C55,38.104 54.104,39 53,39L3,39C1.896,39 1,38.104 1,37L1,3C1,1.896 1.896,1 3,1L53,1C54.104,1 55,1.896 55,3Z" style="fill:white;stroke:black;stroke-width:2px;"/>
    <path d="M36,51L36,55L20,55L20,39L36,39L36,47" style="fill:none;fill-rule:nonzero;stroke:black;stroke-width:2px;stroke-linecap:round;"/>
    <path d="M12,55L44,55" style="fill:none;fill-rule:nonzero;stroke:black;stroke-width:2px;stroke-linecap:round;"/>
    <rect x="20" y="39" width="16" height="6"/>
    <g>
        <g transform="matrix(1,0,0,1,-1333.84,-436.92)">
            <path d="M1355.03,460.996C1355.03,463.047 1353.86,464.072 1351.52,464.072L1349.1,464.072C1348.79,464.072 1348.53,463.986 1348.32,463.813C1348.11,463.64 1348,463.433 1348,463.193L1348,452.646C1348,452.406 1348.11,452.199 1348.32,452.027C1348.53,451.854 1348.79,451.767 1349.1,451.767L1351.52,451.767C1353.86,451.767 1355.03,452.793 1355.03,454.843L1355.03,455.722C1355.03,456.677 1354.78,457.41 1354.27,457.92C1354.78,458.429 1355.03,459.162 1355.03,460.117L1355.03,460.996ZM1352.83,454.843C1352.83,453.965 1352.39,453.525 1351.52,453.525L1350.2,453.525L1350.2,457.041L1351.52,457.041C1352.39,457.041 1352.83,456.601 1352.83,455.722L1352.83,454.843ZM1351.52,462.314C1352.39,462.314 1352.83,461.875 1352.83,460.996L1352.83,460.117C1352.83,459.238 1352.39,458.799 1351.52,458.799L1350.2,458.799L1350.2,462.314L1351.52,462.314Z" style="fill-rule:nonzero;"/>
            <path d="M1358.11,463.193C1358.11,463.433 1358,463.64 1357.79,463.813C1357.57,463.986 1357.31,464.072 1357.01,464.072C1356.7,464.072 1356.44,463.986 1356.23,463.813C1356.02,463.64 1355.91,463.433 1355.91,463.193L1355.91,454.843C1355.91,452.793 1357.08,451.767 1359.43,451.767C1360.46,451.767 1361.26,451.967 1361.84,452.365C1362.42,451.967 1363.23,451.767 1364.26,451.767C1366.6,451.767 1367.78,452.793 1367.78,454.843L1367.78,463.193C1367.78,463.433 1367.67,463.64 1367.45,463.813C1367.24,463.986 1366.98,464.072 1366.68,464.072C1366.37,464.072 1366.11,463.986 1365.9,463.813C1365.68,463.64 1365.58,463.433 1365.58,463.193L1365.58,454.843C1365.58,453.965 1365.14,453.525 1364.26,453.525C1363.38,453.525 1362.94,453.965 1362.94,454.843L1362.94,463.193C1362.94,463.433 1362.83,463.64 1362.62,463.813C1362.41,463.986 1362.15,464.072 1361.84,464.072C1361.54,464.072 1361.28,463.986 1361.07,463.813C1360.85,463.64 1360.74,463.433 1360.74,463.193L1360.74,454.843C1360.74,453.965 1360.3,453.525 1359.43,453.525C1358.55,453.525 1358.11,453.965 1358.11,454.843L1358.11,463.193Z" style="fill-rule:nonzero;"/>
            <path d="M1368.65,460.996C1368.65,460.756 1368.76,460.549 1368.98,460.376C1369.19,460.203 1369.45,460.117 1369.75,460.117C1370.06,460.117 1370.32,460.203 1370.53,460.376C1370.74,460.549 1370.85,460.756 1370.85,460.996C1370.85,461.875 1371.29,462.314 1372.17,462.314C1373.05,462.314 1373.49,461.875 1373.49,460.996C1373.49,460.41 1372.68,459.531 1371.07,458.359C1369.46,457.187 1368.65,456.015 1368.65,454.843C1368.65,452.793 1369.83,451.767 1372.17,451.767C1374.51,451.767 1375.68,452.793 1375.68,454.843C1375.68,455.084 1375.58,455.29 1375.37,455.463C1375.15,455.636 1374.89,455.722 1374.59,455.722C1374.28,455.722 1374.02,455.636 1373.81,455.463C1373.6,455.29 1373.49,455.084 1373.49,454.843C1373.49,453.965 1373.05,453.525 1372.17,453.525C1371.29,453.525 1370.85,453.965 1370.85,454.843C1370.85,455.429 1371.66,456.308 1373.27,457.48C1374.88,458.652 1375.68,459.824 1375.68,460.996C1375.68,463.047 1374.51,464.072 1372.17,464.072C1369.83,464.072 1368.65,463.047 1368.65,460.996Z" style="fill-rule:nonzero;"/>
        </g>
    </g>
</svg>
